X: 16906
T: Haunted House, The
R: jig
M: 6/8
K: Bminor
~B3 cBc|dGG G3|Bdf gbf|gbf gbf|
~B3 cBc|dGG G3|Bdf gbg|fdc B3:|
|:Bdf gbf|gbf gbf|Bdf ~f3|fgf fdc|
[1 Bdf gbf|gbf gbf|Bdf gbg|fdc B3:|
[2 ~B3 cBc|dGG G3|Bdf gbg|fdc B3||

